src/pos-icons/file-tree.svg

<svg height="24" viewBox="0 0 24 24" width="24" xmlns="http://www.w3.org/2000/svg"><path d="m3 3h6v4h-6zm12 7h6v4h-6zm0 7h6v4h-6zm-2-4h-6v5h6v2h-6-2v-11h2v2h6z"/></svg>

<?xml version="1.0" encoding="UTF-8"?><!DOCTYPE svg PUBLIC "-//W3C//DTD SVG 1.1//EN" "http://www.w3.org/Graphics/SVG/1.1/DTD/svg11.dtd"><svg xmlns="http://www.w3.org/2000/svg" xmlns:xlink="http://www.w3.org/1999/xlink" version="1.1" id="mdi-file-tree" width="24" height="24" viewBox="0 0 24 24"><path d="M3,3H9V7H3V3M15,10H21V14H15V10M15,17H21V21H15V17M13,13H7V18H13V20H7L5,20V9H7V11H13V13Z" /></svg>
